airbyte/airbyte-config/init/src/main/resources/icons/bamboohr.svg

<?xml version="1.0" encoding="UTF-8"?>
<svg width="150px" height="23px" viewBox="0 0 150 23" version="1.1" xmlns="http://www.w3.org/2000/svg" xmlns:xlink="http://www.w3.org/1999/xlink">
    <!-- Generator: Sketch 56.3 (81716) - https://sketch.com -->
    <title>BambooHR</title>
    <desc>Created with Sketch.</desc>
    <g id="Page-1" stroke="none" stroke-width="1" fill="none" fill-rule="evenodd">
        <g id="Marketplace" fill="#73C41D" fill-rule="nonzero">
            <g id="Logo/BambooHR/Logo">
                <path d="M149.742905,9.44160799 C149.9147,9.82712984 150,10.2446797 150,10.6922804 C150,11.1517434 149.9147,11.5756197 149.742905,11.9647002 C149.571109,12.3525945 149.339922,12.6910629 149.048149,12.9769422 C148.756376,13.2636123 148.415973,13.4862264 148.026942,13.6451801 C147.637911,13.8037383 147.223768,13.8836105 146.782919,13.8836105 C146.342867,13.8836105 145.92713,13.8037383 145.535309,13.6451801 C145.143089,13.4862264 144.800295,13.2636123 144.505731,12.9769422 C144.211167,12.6910629 143.978386,12.3525945 143.806591,11.9647002 C143.634795,11.5756197 143.549495,11.1517434 143.549495,10.6922804 C143.549495,10.2446797 143.634795,9.82712984 143.806591,9.44160799 C143.978386,9.05529533 144.211167,8.72117639 144.505731,8.43687874 C144.800295,8.15337191 145.143089,7.93075775 145.535309,7.76864087 C145.92713,7.60731481 146.342867,7.52704718 146.782919,7.52704718 C147.223768,7.52704718 147.637911,7.60731481 148.026942,7.76864087 C148.415973,7.93075775 148.756376,8.15337191 149.048149,8.43687874 C149.339922,8.72117639 149.571109,9.05529533 149.742905,9.44160799 Z M149.21556,11.7768819 C149.349489,11.4455308 149.416852,11.0837334 149.416852,10.6922804 C149.416852,10.3126897 149.349489,9.95761415 149.21556,9.62863551 C149.081233,9.29965687 148.895088,9.0145684 148.657523,8.77337012 C148.420358,8.53256724 148.14134,8.34198106 147.821664,8.20319319 C147.500793,8.06361451 147.155209,7.99481369 146.782919,7.99481369 C146.405846,7.99481369 146.055478,8.06361451 145.732614,8.20319319 C145.409352,8.34198106 145.128739,8.53256724 144.891573,8.77337012 C144.654408,9.0145684 144.468263,9.29965687 144.333935,9.62863551 C144.199608,9.95761415 144.132245,10.3126897 144.132245,10.6922804 C144.132245,11.0837334 144.199608,11.4455308 144.333935,11.7768819 C144.468263,12.1090238 144.654408,12.3968801 144.891573,12.6412416 C145.128739,12.8844169 145.409352,13.0765848 145.732614,13.2153726 C146.055478,13.3541605 146.405846,13.4241475 146.782919,13.4241475 C147.155209,13.4241475 147.500793,13.3541605 147.821664,13.2153726 C148.14134,13.0765848 148.420358,12.8844169 148.657523,12.6412416 C148.895088,12.3968801 149.081233,12.1090238 149.21556,11.7768819 Z M148.009962,10.6457805 C147.821425,10.8011755 147.586651,10.8937007 147.306437,10.9217746 L148.378665,12.5646908 L147.752866,12.5646908 L146.731659,10.964874 L146.114232,10.964874 L146.114232,12.5646908 L145.530685,12.5646908 L145.530685,8.84588777 L146.980783,8.84588777 C147.426415,8.84588777 147.756852,8.93366813 147.971298,9.10922884 C148.185743,9.28558038 148.292966,9.55208471 148.292966,9.90953266 C148.292966,10.2444424 148.198897,10.4895948 148.009962,10.6457805 Z M146.723289,10.4963167 C146.854427,10.4963167 146.979188,10.4919672 147.096376,10.4840591 C147.213564,10.4753601 147.317996,10.4516357 147.409674,10.4113042 C147.500953,10.3717635 147.573896,10.3108708 147.628105,10.2286261 C147.682315,10.1463815 147.709419,10.0317134 147.709419,9.8838312 C147.709419,9.75927799 147.685105,9.65924001 147.636476,9.58608971 C147.588246,9.5121486 147.525267,9.4560008 147.448338,9.41566929 C147.370611,9.37612859 147.282521,9.34924091 147.182075,9.33540166 C147.082027,9.32116701 146.983174,9.31365428 146.885917,9.31365428 L146.114232,9.31365428 L146.114232,10.4963167 L146.723289,10.4963167 Z M42.2807594,9.43543964 L42.2807594,7.41925923 L44.607772,7.41925923 L44.607772,21.4222036 L42.2807594,21.4222036 L42.2807594,19.5511375 L42.2213683,19.5511375 C41.1901964,20.7792717 39.4519124,21.9192302 37.0639143,21.9192302 C33.234986,21.9192302 29.8154174,18.9663305 29.8154174,14.4053105 C29.8154174,10.0775806 32.9970233,6.95228353 37.2121926,6.95228353 C39.7763708,6.95228353 41.2774893,8.2958766 42.2500674,9.43543964 L42.2807594,9.43543964 Z M37.3879742,19.8729988 C40.0410396,19.8729988 42.4868343,17.6508114 42.4868343,14.4938817 C42.4868343,11.1613913 40.2176183,8.96925476 37.4473652,8.96925476 C33.9106089,8.96925476 32.2305201,11.7165428 32.2305201,14.4053105 C32.2305201,17.0944737 33.9106089,19.8729988 37.3879742,19.8729988 Z M62.7968555,6.95216491 C65.9796572,6.95216491 68.1898807,9.14430145 68.1898807,13.2668151 L68.1898807,21.4224803 L65.8612737,21.4224803 L65.8612737,13.0888819 C65.8612737,10.9267963 64.8599966,9.02686556 62.4727957,9.02686556 C60.4981433,9.02686556 58.6418744,10.4297697 58.6418744,13.6464058 L58.6418744,21.4224803 L56.2837712,21.4224803 L56.2837712,13.0888819 C56.2837712,10.7808911 55.0170281,9.02686556 52.9247894,9.02686556 C50.5666862,9.02686556 49.0647705,10.7219755 49.0647705,13.6464058 L49.0647705,21.4224803 L46.7353663,21.4224803 L46.7353663,7.4191406 L49.0647705,7.4191406 L49.0647705,9.17316616 L49.1241616,9.17316616 C50.065649,7.91695805 51.509768,6.95216491 53.3369393,6.95216491 C55.5471629,6.95216491 57.3444393,8.20837302 57.9343637,9.84575351 C58.6418744,8.44166317 60.3514594,6.95216491 62.7968555,6.95216491 Z M94.0334328,6.95216491 C98.4227893,6.95216491 101.576892,10.1676148 101.576892,14.4055873 C101.576892,18.5281009 98.3940902,21.9191116 94.0334328,21.9191116 C89.7596696,21.9191116 86.4887779,18.6443506 86.4887779,14.4055873 C86.4887779,10.077462 89.7891658,6.95216491 94.0334328,6.95216491 Z M94.0334328,19.8139646 C97.0085651,19.8139646 99.1601948,17.4747366 99.1601948,14.4055873 C99.1601948,11.4526877 97.1273471,9.02686556 94.0334328,9.02686556 C91.0280071,9.02686556 88.905475,11.3071779 88.905475,14.4055873 C88.905475,17.5621216 91.3221721,19.8139646 94.0334328,19.8139646 Z M110.61007,6.95216491 C115.003013,6.95216491 118.154724,10.1676148 118.154724,14.4055873 C118.154724,18.5281009 114.971126,21.9191116 110.61007,21.9191116 C106.339097,21.9191116 103.067009,18.6443506 103.067009,14.4055873 C103.067009,10.077462 106.367796,6.95216491 110.61007,6.95216491 Z M110.61007,19.8139646 C113.586398,19.8139646 115.739223,17.4747366 115.739223,14.4055873 C115.739223,11.4526877 113.705977,9.02686556 110.61007,9.02686556 C107.60584,9.02686556 105.484503,11.3071779 105.484503,14.4055873 C105.484503,17.5621216 107.900802,19.8139646 110.61007,19.8139646 Z M129.205404,13.422131 L129.205404,7.46769659 L130.916583,7.46769659 L130.916583,21.4224013 L129.205404,21.4224013 L129.205404,14.9772668 L121.722531,14.9772668 L121.722531,21.4224013 L120.012149,21.4224013 L120.012149,7.46769659 L121.722531,7.46769659 L121.722531,13.422131 L129.205404,13.422131 Z M142.364385,11.5597639 C142.364385,13.5443117 140.878413,15.0788864 139.106647,15.42724 L143.540647,21.4224013 L141.373472,21.4224013 L137.126414,15.5913339 L135.247425,15.5913339 L135.247425,21.4224013 L133.535449,21.4224013 L133.535449,7.46769659 L137.599948,7.46769659 C141.105215,7.46769659 142.364385,9.63689952 142.364385,11.5597639 Z M135.247425,14.0354072 L137.804429,14.0354072 C139.663089,14.0354072 140.591423,12.9108697 140.591423,11.5597639 C140.591423,9.9231742 139.601705,9.02283241 137.784898,9.02283241 L135.247425,9.02283241 L135.247425,14.0354072 Z M20.5449546,6.79941918 C24.6202162,6.79941918 28.1394342,10.2892816 28.1394342,14.3497163 C28.1394342,18.7225226 24.7653057,22.125 20.3089849,22.125 C16.2636181,22.125 12.7384211,19.2958627 12.7384211,14.7554039 L12.7384211,3.55271368e-15 L15.0809791,3.55271368e-15 L15.0817763,9.01607095 L15.3595988,8.72663301 C16.3792114,7.72269458 17.8328967,6.79941918 20.5449546,6.79941918 Z M20.3089849,20.0068046 C23.6324914,20.0068046 25.7438628,17.6600639 25.7438628,14.5652131 C25.7438628,11.7202596 23.7484833,9.00420874 20.3619983,9.00420874 C16.975912,9.00420874 14.8760999,11.5375815 14.8760999,14.6221517 C14.8760999,17.7051403 17.3665376,20.0068046 20.3089849,20.0068046 Z M77.6514312,6.79941918 C81.7262942,6.79941918 85.2459108,10.2892816 85.2459108,14.3497163 C85.2459108,18.7225226 81.8717823,22.125 77.4154614,22.125 C73.3700947,22.125 69.8444991,19.2958627 69.8444991,14.7554039 L69.8444991,1.38866947 L72.1874557,1.38866947 L72.1882529,9.01607095 L72.4660754,8.72663301 C73.485688,7.72269458 74.9393733,6.79941918 77.6514312,6.79941918 Z M77.4154614,20.0068046 C80.738968,20.0068046 82.8499408,17.6600639 82.8499408,14.5652131 C82.8499408,11.7202596 80.8549599,9.00420874 77.4684749,9.00420874 C74.0819899,9.00420874 71.9825765,11.5375815 71.9825765,14.6221517 C71.9825765,17.7051403 74.4726155,20.0068046 77.4154614,20.0068046 Z M8.04090887,1.78134818 C9.78915783,3.61287351 9.97291131,4.63618689 10.5935277,6.41393687 L11.6334688,9.7934807 C11.6334688,9.7934807 10.6078772,9.60249911 9.76763356,9.47675967 C8.79306249,9.33006367 8.36177991,9.18653092 7.12293865,8.68555022 C5.8833002,8.18456952 4.76244382,6.95920315 3.66351031,5.59267648 C2.56497539,4.22535899 -2.66453526e-14,2.07711264 -2.66453526e-14,2.07711264 C-2.66453526e-14,2.07711264 0.793209173,2.12930636 1.59718048,2.32780069 C2.25606227,2.49110379 3.97162623,3.04309199 5.74139946,3.955296 C6.13401807,4.15695358 6.35165235,4.2878333 6.73869059,4.52586833 C7.32702061,4.88647954 7.94604264,5.42423309 8.53835864,6.02050688 C9.2347086,6.72077272 9.84456289,7.28383232 10.3651313,7.91055245 C9.79832557,6.87537687 8.32909491,3.14827026 5.45680079,0.072003619 C5.1753909,-0.229296533 7.44221531,1.15344183 8.04090887,1.78134818 Z" id="BambooHR"></path>
            </g>
        </g>
    </g>
</svg>

<svg xmlns="http://www.w3.org/2000/svg" width="150" height="23"><path fill="#73C41D" fill-rule="nonzero" d="M149.743 9.442c.172.385.257.803.257 1.25 0 .46-.085.884-.257 1.273a3.237 3.237 0 0 1-.695 1.012 3.13 3.13 0 0 1-1.021.668 3.262 3.262 0 0 1-1.244.239c-.44 0-.856-.08-1.248-.239a3.163 3.163 0 0 1-1.728-1.68 3.114 3.114 0 0 1-.258-1.273c0-.447.086-.865.258-1.25a3.17 3.17 0 0 1 1.728-1.673 3.244 3.244 0 0 1 1.248-.242 3.213 3.213 0 0 1 2.96 1.915Zm-.527 2.335c.133-.331.2-.693.2-1.085 0-.38-.067-.734-.2-1.063a2.61 2.61 0 0 0-1.394-1.426 2.573 2.573 0 0 0-1.04-.208 2.619 2.619 0 0 0-1.89.778 2.616 2.616 0 0 0-.558.856 2.789 2.789 0 0 0-.202 1.063c0 .392.068.754.202 1.085a2.59 2.59 0 0 0 1.399 1.438c.322.14.673.21 1.05.21a2.586 2.586 0 0 0 2.433-1.648Zm-1.206-1.131a1.28 1.28 0 0 1-.704.276l1.073 1.643h-.626l-1.021-1.6h-.618v1.6h-.583v-3.72h1.45c.445 0 .776.089.99.264.215.177.322.443.322.8 0 .335-.094.58-.283.737Zm-1.287-.15c.131 0 .256-.004.373-.012a.948.948 0 0 0 .314-.073c.091-.04.164-.1.218-.182a.622.622 0 0 0 .081-.345.533.533 0 0 0-.073-.298.495.495 0 0 0-.188-.17.832.832 0 0 0-.266-.08 2.103 2.103 0 0 0-.296-.022h-.772v1.182h.61ZM42.281 9.436V7.418h2.327v14.003H42.28v-1.87h-.06c-1.03 1.227-2.77 2.367-5.157 2.367-3.829 0-7.249-2.953-7.249-7.514 0-4.327 3.182-7.453 7.397-7.453 2.564 0 4.065 1.344 5.038 2.483h.03Zm-4.893 10.437c2.653 0 5.099-2.222 5.099-5.38 0-3.332-2.27-5.524-5.04-5.524-3.536 0-5.216 2.748-5.216 5.436 0 2.69 1.68 5.468 5.157 5.468Zm25.409-12.92c3.183 0 5.393 2.191 5.393 6.314v8.155H65.86V13.09c0-2.162-1.001-4.062-3.388-4.062-1.975 0-3.831 1.403-3.831 4.62v7.775h-2.358V13.09c0-2.308-1.267-4.062-3.36-4.062-2.357 0-3.86 1.695-3.86 4.62v7.775h-2.329V7.42h2.33v1.754h.06c.94-1.256 2.385-2.22 4.212-2.22 2.21 0 4.007 1.255 4.597 2.893.708-1.404 2.417-2.894 4.863-2.894Zm31.236 0c4.39 0 7.544 3.215 7.544 7.453 0 4.122-3.183 7.513-7.544 7.513-4.273 0-7.544-3.275-7.544-7.513 0-4.329 3.3-7.454 7.544-7.454Zm0 12.861c2.976 0 5.127-2.34 5.127-5.408 0-2.953-2.033-5.38-5.127-5.38-3.005 0-5.128 2.281-5.128 5.38 0 3.156 2.417 5.408 5.128 5.408ZM110.61 6.952c4.393 0 7.545 3.216 7.545 7.454 0 4.122-3.184 7.513-7.545 7.513-4.27 0-7.543-3.275-7.543-7.513 0-4.329 3.3-7.454 7.543-7.454Zm0 12.862c2.976 0 5.13-2.34 5.13-5.408 0-2.953-2.034-5.38-5.13-5.38-3.004 0-5.125 2.281-5.125 5.38 0 3.156 2.416 5.408 5.125 5.408Zm18.595-6.392V7.468h1.712v13.954h-1.712v-6.445h-7.482v6.445h-1.71V7.468h1.71v5.954h7.482Zm13.16-1.862c0 1.984-1.487 3.519-3.258 3.867l4.434 5.995h-2.168l-4.247-5.83h-1.879v5.83h-1.712V7.468h4.065c3.505 0 4.764 2.169 4.764 4.092Zm-7.118 2.475h2.557c1.86 0 2.787-1.124 2.787-2.475 0-1.637-.99-2.537-2.806-2.537h-2.538v5.012ZM20.545 6.8c4.075 0 7.594 3.49 7.594 7.55 0 4.374-3.374 7.776-7.83 7.776-4.045 0-7.57-2.83-7.57-7.37V0h2.342v9.016l.279-.29C16.38 7.724 17.833 6.8 20.545 6.8Zm-.236 13.208c3.323 0 5.435-2.347 5.435-5.442 0-2.845-1.996-5.56-5.382-5.56-3.386 0-5.486 2.533-5.486 5.617 0 3.083 2.49 5.385 5.433 5.385ZM77.651 6.799c4.075 0 7.595 3.49 7.595 7.55 0 4.374-3.374 7.776-7.83 7.776-4.046 0-7.572-2.83-7.572-7.37V1.39h2.343l.001 7.627.278-.29C73.486 7.724 74.94 6.8 77.651 6.8Zm-.236 13.208c3.324 0 5.435-2.347 5.435-5.442 0-2.845-1.995-5.56-5.382-5.56-3.386 0-5.485 2.533-5.485 5.617 0 3.083 2.49 5.385 5.432 5.385ZM8.041 1.78c1.748 1.832 1.932 2.855 2.553 4.633l1.04 3.38s-1.026-.192-1.866-.317c-.975-.147-1.406-.29-2.645-.791-1.24-.501-2.36-1.727-3.46-3.093C2.566 4.225 0 2.077 0 2.077s.793.052 1.597.25c.66.164 2.375.716 4.144 1.628.393.202.61.333.998.57.588.361 1.207.9 1.8 1.496.696.7 1.306 1.263 1.826 1.89C9.798 6.875 8.33 3.148 5.457.072c-.282-.301 1.985 1.081 2.584 1.71Z"/></svg>
